X:21
T:Ger the Rigger
Z: id:dc-polka-17
M:2/4
L:1/8
K:A Major
eA eA|e/f/e/d/ cA|d2 d/e/f/g/|ae fe|!
eA eA|e/f/e/d/ cA|d2 c2|B/A/B/c/ A2:|!
ae f/e/c/e/|ae f/e/c/e/|d2 d/e/f/g/|ae fe|!
ae f/e/c/e/|ae f/e/c/e/|d2 c2|B/A/B/c/ A2:|!

